symbols/be/PVO-{140}.svg

<?xml version="1.0" encoding="UTF-8" standalone="no"?>
<!-- Initially created with Inkscape, optimized by hand -->

<svg
   version="1.1"
   width="20"
   height="14.096813"
   id="svg1"
   xmlns="http://www.w3.org/2000/svg"
   xmlns:svg="http://www.w3.org/2000/svg">
  <defs
     id="defs1" />
  <rect
     x="0"
     y="0"
     width="20"
     height="14.096812"
     style="fill:#ffffff;stroke:none;stroke-width:0.0590319"
     id="Fond" />
  <circle
     cx="10"
     cy="7.0484047"
     r="5.8441563"
     style="fill:none;stroke:#000000;stroke-width:0.590319"
     id="circle1" />
  <path
     d="M 8.4887324,10.24353 V 3.8541756 c 0,-0.106667 -0.032,-0.192 -0.106667,-0.266667 -0.064,-0.07467 -0.362668,-0.149334 -0.501335,-0.01067 l -1.429338,1.429338 c -0.149333,0.149334 -0.096,0.426668 0.01067,0.533335 0.096,0.106667 0.352001,0.128001 0.490668,-0.01067 l 0.821336,-0.832002 v 5.5573514 c 0,0.192 0.170667,0.352001 0.362668,0.352001 0.192001,0 0.352001,-0.160001 0.352001,-0.362668 z M 13.640738,8.8248586 c 0,-0.192001 -0.16,-0.352001 -0.352001,-0.352001 h -0.714669 v -1.077337 c 0,-0.192001 -0.16,-0.341334 -0.352001,-0.341334 -0.192001,0 -0.362668,0.16 -0.362668,0.352001 v 1.06667 h -1.664005 l 1.301337,-4.554681 c 0.05333,-0.202668 -0.08533,-0.426668 -0.341334,-0.426668 -0.128,-0.01067 -0.298668,0.07467 -0.341334,0.234667 l -1.4400046,5.013349 c -0.032,0.138667 0.032,0.298668 0.096,0.341335 0.08533,0.07467 0.149334,0.106667 0.256001,0.106667 h 2.1333396 v 1.0666704 c 0,0.192 0.170667,0.352001 0.362668,0.352001 0.192001,0 0.352001,-0.160001 0.352001,-0.352001 V 9.1875266 h 0.714669 c 0.192001,0 0.352001,-0.170668 0.352001,-0.362668 z"
     id="text1"
     style="font-size:10.6667px;font-family:Isonorm;-inkscape-font-specification:'Isonorm, Normal';fill-rule:evenodd;stroke-width:0.0944511"
     aria-label="14" />
</svg>

<?xml version="1.0" encoding="UTF-8"?>
<svg xmlns="http://www.w3.org/2000/svg" xmlns:xlink="http://www.w3.org/1999/xlink" width="20" height="14.096813" viewBox="0 0 20 14.096813">
<path fill-rule="nonzero" fill="rgb(100%, 100%, 100%)" fill-opacity="1" d="M 0 0 L 20 0 L 20 14.097656 L 0 14.097656 Z M 0 0 "/>
<path fill="none" stroke-width="0.590319" stroke-linecap="butt" stroke-linejoin="miter" stroke="rgb(0%, 0%, 0%)" stroke-opacity="1" stroke-miterlimit="4" d="M 15.84375 7.046875 C 15.84375 10.277344 13.226562 12.890625 10 12.890625 C 6.773438 12.890625 4.15625 10.277344 4.15625 7.046875 C 4.15625 3.820312 6.773438 1.203125 10 1.203125 C 13.226562 1.203125 15.84375 3.820312 15.84375 7.046875 Z M 15.84375 7.046875 "/>
<path fill-rule="evenodd" fill="rgb(0%, 0%, 0%)" fill-opacity="1" d="M 8.488281 10.242188 L 8.488281 3.855469 C 8.488281 3.746094 8.457031 3.664062 8.382812 3.585938 C 8.316406 3.511719 8.019531 3.4375 7.878906 3.578125 L 6.453125 5.007812 C 6.300781 5.15625 6.355469 5.433594 6.460938 5.539062 C 6.558594 5.644531 6.8125 5.667969 6.953125 5.527344 L 7.773438 4.695312 L 7.773438 10.253906 C 7.773438 10.445312 7.945312 10.605469 8.136719 10.605469 C 8.328125 10.605469 8.488281 10.445312 8.488281 10.242188 Z M 13.640625 8.824219 C 13.640625 8.632812 13.480469 8.472656 13.289062 8.472656 L 12.574219 8.472656 L 12.574219 7.394531 C 12.574219 7.203125 12.414062 7.054688 12.222656 7.054688 C 12.03125 7.054688 11.859375 7.214844 11.859375 7.40625 L 11.859375 8.472656 L 10.195312 8.472656 L 11.496094 3.917969 C 11.550781 3.714844 11.410156 3.492188 11.15625 3.492188 C 11.027344 3.480469 10.855469 3.566406 10.8125 3.726562 L 9.375 8.738281 C 9.34375 8.878906 9.40625 9.039062 9.46875 9.082031 C 9.554688 9.15625 9.621094 9.1875 9.726562 9.1875 L 11.859375 9.1875 L 11.859375 10.253906 C 11.859375 10.445312 12.03125 10.605469 12.222656 10.605469 C 12.414062 10.605469 12.574219 10.445312 12.574219 10.253906 L 12.574219 9.1875 L 13.289062 9.1875 C 13.480469 9.1875 13.640625 9.015625 13.640625 8.824219 Z M 13.640625 8.824219 "/>
</svg>
